static/img/svg/calendar.svg

<svg xmlns="http://www.w3.org/2000/svg" width="24" height="24" viewBox="0 0 24 24"><path d="M3 22h18a1 1 0 0 0 1-1V5a1 1 0 0 0-1-1h-4V2h-2v2H9V2H7v2H3a1 1 0 0 0-1 1v16a1 1 0 0 0 1 1zm1-2V10h16v10H4zM7 6v1h2V6h6v1h2V6h3v2H4V6h3z"/><path d="M7 12h2v2H7zM7 16h2v2H7zM11 12h2v2h-2zM11 16h2v2h-2zM15 12h2v2h-2zM15 16h2v2h-2z"/></svg>

<svg xmlns="http://www.w3.org/2000/svg" width="24" height="24" viewBox="0 0 24 24"><path d="M3,22h18c0.553,0,1-0.448,1-1V5c0-0.552-0.447-1-1-1h-4V2h-2v2H9V2H7v2H3C2.447,4,2,4.448,2,5v16C2,21.552,2.447,22,3,22z M4,6h3v1h2V6h6v1h2V6h3v2H4V6z M4,10h16v10H4V10z"/><path d="M7 12H9V14H7zM7 16H9V18H7zM11 12H13V14H11zM11 16H13V18H11zM15 12H17V14H15zM15 16H17V18H15z"/></svg>
